packages/core/src/svgs/ionx.svg

<svg width="24" height="24" viewBox="0 0 24 24" fill="none" xmlns="http://www.w3.org/2000/svg">
<g clip-path="url(#clip0_31_11860)">
<path d="M0 0H24V24H0V0Z" fill="url(#paint0_linear_31_11860)"/>
<path d="M11.9999 13.2856C12.3409 13.2856 12.6679 13.1501 12.909 12.909C13.1502 12.6679 13.2856 12.3409 13.2856 11.9999C13.2856 11.6589 13.1502 11.3318 12.909 11.0907C12.6679 10.8496 12.3409 10.7141 11.9999 10.7141C11.6589 10.7141 11.3319 10.8496 11.0908 11.0907C10.8496 11.3318 10.7142 11.6589 10.7142 11.9999C10.7142 12.3409 10.8496 12.6679 11.0908 12.909C11.3319 13.1501 11.6589 13.2856 11.9999 13.2856ZM10.2856 7.28557C10.5129 7.28557 10.731 7.19527 10.8917 7.03452C11.0524 6.87378 11.1428 6.65576 11.1428 6.42843C11.1428 6.2011 11.0524 5.98309 10.8917 5.82234C10.731 5.6616 10.5129 5.57129 10.2856 5.57129C10.0583 5.57129 9.84026 5.6616 9.67952 5.82234C9.51877 5.98309 9.42847 6.2011 9.42847 6.42843C9.42847 6.65576 9.51877 6.87378 9.67952 7.03452C9.84026 7.19527 10.0583 7.28557 10.2856 7.28557ZM17.9785 12.4284C17.6943 12.4284 17.4218 12.5413 17.2209 12.7422C17.0199 12.9432 16.907 13.2157 16.907 13.4999C16.907 13.784 17.0199 14.0565 17.2209 14.2575C17.4218 14.4584 17.6943 14.5713 17.9785 14.5713C18.2626 14.5713 18.5351 14.4584 18.7361 14.2575C18.937 14.0565 19.0499 13.784 19.0499 13.4999C19.0499 13.2157 18.937 12.9432 18.7361 12.7422C18.5351 12.5413 18.2626 12.4284 17.9785 12.4284Z" fill="white"/>
<path d="M16.3285 9.61308C16.9199 7.79594 16.8428 6.36023 15.9942 5.7988C15.0514 5.19023 13.4528 5.85023 11.7942 7.40594C11.6614 7.28165 11.5285 7.16594 11.3999 7.05451C11.3317 7.20765 11.2341 7.34596 11.1128 7.46165C11.2199 7.55594 11.3356 7.65023 11.4342 7.7488C11.0056 8.18165 10.6028 8.63594 10.2256 9.11165C9.38993 9.17165 8.55421 9.29594 7.73992 9.4888C7.23421 7.9288 7.24707 6.70737 7.90707 6.27451C8.05379 6.19044 8.21613 6.13719 8.38415 6.11803C8.55216 6.09887 8.72232 6.1142 8.88421 6.16308C8.93564 5.99165 9.02135 5.83308 9.14135 5.69165C8.51992 5.50737 7.98421 5.5288 7.57278 5.80308C6.72421 6.36023 6.65135 7.79594 7.24278 9.61308C5.3785 10.1359 4.2085 10.9931 4.2085 12.0045C4.2085 13.0159 5.3785 13.8645 7.24278 14.3917C7.19135 14.5502 7.14421 14.7045 7.10564 14.8588H7.1785C7.32421 14.8588 7.46992 14.8802 7.60707 14.9274C7.64564 14.7945 7.68421 14.6574 7.73135 14.5202C8.54993 14.7045 9.38564 14.8288 10.2256 14.8845C10.6049 15.3605 11.0097 15.8155 11.4385 16.2474C9.99421 17.5802 8.63993 18.2059 7.90707 17.7217C7.78462 17.6397 7.68211 17.5313 7.60707 17.4045C7.4185 17.4688 7.22135 17.4902 7.02421 17.4602C7.12707 17.7602 7.32421 18.0174 7.58135 18.1974C8.52421 18.8188 10.1185 18.1588 11.7899 16.5945C13.4528 18.1588 15.0471 18.8231 15.9942 18.1974C16.8471 17.6402 16.9199 16.2045 16.3285 14.3831C16.4999 14.3402 16.6714 14.2845 16.8299 14.2331C16.7271 14.1002 16.6542 13.9502 16.6071 13.7917L16.1571 13.9288C15.9052 13.2687 15.6073 12.6272 15.2656 12.0088C15.6085 11.3917 15.9085 10.7488 16.1571 10.0888C17.7556 10.5302 18.7799 11.2331 18.7799 12.0088C18.7799 12.1502 18.7456 12.2874 18.6856 12.4117C18.8442 12.5274 18.9771 12.6774 19.0714 12.8488C19.2556 12.6045 19.3585 12.3088 19.3628 12.0045C19.3628 10.9931 18.1928 10.1359 16.3285 9.61308ZM11.7856 8.09165C12.0856 8.39165 12.3899 8.72165 12.6814 9.07737C12.3856 9.06451 12.0814 9.05594 11.7856 9.05594C11.4856 9.05594 11.1771 9.05594 10.8942 9.07737C11.1771 8.72165 11.4814 8.39165 11.7856 8.09165ZM9.81421 9.63022C9.3717 10.2266 8.96112 10.8461 8.58421 11.4859C8.3239 10.9858 8.09349 10.4706 7.89421 9.94308C8.52421 9.80165 9.16707 9.6988 9.80992 9.63451L9.81421 9.63022ZM7.40564 13.9159C5.80707 13.4788 4.78278 12.7759 4.78278 12.0002C4.78278 11.2245 5.81135 10.5302 7.40564 10.0802C7.65852 10.7406 7.95784 11.3822 8.30135 12.0002C7.9585 12.6174 7.6585 13.2602 7.40993 13.9202L7.40564 13.9159ZM7.88992 14.0445C8.08707 13.5174 8.3185 13.0031 8.57564 12.5017C8.80278 12.8788 9.02564 13.2559 9.29564 13.6331C9.46707 13.8902 9.6385 14.1302 9.80992 14.3617C9.16707 14.2974 8.52421 14.1902 7.88992 14.0445ZM9.6985 13.3674C9.39917 12.9235 9.11613 12.469 8.84992 12.0045C9.33086 11.1607 9.87227 10.3529 10.4699 9.58737C11.3447 9.52857 12.2223 9.52857 13.0971 9.58737C13.6947 10.3514 14.2362 11.1578 14.7171 12.0002C14.2375 12.8439 13.6975 13.6517 13.1014 14.4174C12.2265 14.4716 11.3491 14.4716 10.4742 14.4174C10.2128 14.0831 9.95564 13.7317 9.70278 13.3631L9.6985 13.3674ZM10.8814 14.9231C11.1728 14.9359 11.4728 14.9402 11.7728 14.9402C12.0728 14.9402 12.3814 14.9402 12.6685 14.9231C12.3685 15.2788 12.0642 15.6088 11.7728 15.9088C11.4814 15.6088 11.1771 15.2788 10.8814 14.9231ZM15.6685 17.7217C14.9399 18.2017 13.5814 17.5802 12.1371 16.2474C12.5656 15.8145 12.9728 15.3602 13.3499 14.8845C14.1899 14.8245 15.0214 14.7002 15.8356 14.5117C16.3414 16.0674 16.3285 17.2802 15.6685 17.7217ZM15.6685 14.0402C15.0385 14.1902 14.3956 14.2974 13.7485 14.3574C14.1929 13.7623 14.6035 13.1427 14.9785 12.5017C15.2403 13.0017 15.4721 13.5169 15.6728 14.0445L15.6685 14.0402ZM14.9828 11.4902C14.7599 11.1217 14.5371 10.7402 14.2714 10.3631C14.0999 10.1145 13.9285 9.87022 13.7528 9.63451C14.3956 9.6988 15.0385 9.80594 15.6728 9.95165C15.4756 10.4788 15.2442 10.9931 14.9871 11.4945L14.9828 11.4902ZM15.8399 9.4888C15.0214 9.29594 14.1899 9.17165 13.3542 9.11165C12.975 8.63566 12.5701 8.1807 12.1414 7.7488C13.5814 6.41594 14.9399 5.79451 15.6728 6.2788C16.3285 6.70737 16.3414 7.9288 15.8356 9.4888H15.8399Z" fill="white"/>
<path d="M8.57132 16.5001C8.57132 16.216 8.45844 15.9435 8.25751 15.7425C8.05658 15.5416 7.78406 15.4287 7.4999 15.4287C7.21573 15.4287 6.94321 15.5416 6.74228 15.7425C6.54135 15.9435 6.42847 16.216 6.42847 16.5001C6.42847 16.7843 6.54135 17.0568 6.74228 17.2578C6.94321 17.4587 7.21573 17.5716 7.4999 17.5716C7.78406 17.5716 8.05658 17.4587 8.25751 17.2578C8.45844 17.0568 8.57132 16.7843 8.57132 16.5001Z" fill="white"/>
</g>
<defs>
<linearGradient id="paint0_linear_31_11860" x1="6" y1="22.3929" x2="18" y2="1.60714" gradientUnits="userSpaceOnUse">
<stop stop-color="#383D63"/>
<stop offset="0.23" stop-color="#693566"/>
<stop offset="0.48" stop-color="#982D6A"/>
<stop offset="0.7" stop-color="#BB276C"/>
<stop offset="0.88" stop-color="#D0236D"/>
<stop offset="1" stop-color="#D8226E"/>
</linearGradient>
<clipPath id="clip0_31_11860">
<rect width="24" height="24" fill="white"/>
</clipPath>
</defs>
</svg>

<svg xmlns="http://www.w3.org/2000/svg" width="24" height="24" fill="none" viewBox="0 0 24 24"><g clip-path="url(#a)"><path fill="url(#b)" d="M0 0h24v24H0z"/><path fill="#fff" d="M12 13.286a1.286 1.286 0 1 0 0-2.572 1.286 1.286 0 0 0 0 2.572m-1.714-6a.857.857 0 1 0 0-1.715.857.857 0 0 0 0 1.715m7.693 5.142a1.071 1.071 0 1 0 0 2.143 1.071 1.071 0 0 0 0-2.143"/><path fill="#fff" d="M16.328 9.613c.592-1.817.515-3.253-.334-3.814-.943-.609-2.541.051-4.2 1.607q-.2-.185-.394-.351a1.3 1.3 0 0 1-.287.407c.107.094.223.188.321.287q-.642.65-1.208 1.363c-.836.06-1.672.184-2.486.377-.506-1.56-.493-2.782.167-3.214a1.24 1.24 0 0 1 .977-.112q.078-.258.257-.471c-.621-.185-1.157-.163-1.568.111-.849.557-.922 1.993-.33 3.81-1.865.523-3.035 1.38-3.035 2.392 0 1.01 1.17 1.86 3.035 2.387a7 7 0 0 0-.137.467h.072q.221-.001.43.068c.038-.133.076-.27.123-.407.819.184 1.655.309 2.495.364q.57.714 1.212 1.363c-1.444 1.333-2.798 1.959-3.53 1.475a1 1 0 0 1-.3-.318 1.2 1.2 0 0 1-.584.056c.103.3.3.557.557.737.943.622 2.537-.038 4.209-1.602 1.663 1.564 3.257 2.228 4.204 1.602.853-.557.926-1.992.334-3.814.172-.043.343-.098.502-.15a1.3 1.3 0 0 1-.223-.441l-.45.137q-.379-.992-.891-1.92c.342-.617.643-1.26.891-1.92 1.599.441 2.623 1.144 2.623 1.92a.9.9 0 0 1-.094.403c.158.115.291.265.385.437.185-.245.287-.54.292-.844 0-1.012-1.17-1.87-3.035-2.392m-4.542-1.521c.3.3.604.63.895.985a21 21 0 0 0-.895-.021c-.3 0-.609 0-.892.021.283-.355.587-.685.892-.985M9.814 9.63a21 21 0 0 0-1.23 1.856q-.39-.75-.69-1.543c.63-.141 1.273-.244 1.916-.308zm-2.408 4.286c-1.599-.437-2.623-1.14-2.623-1.916 0-.775 1.028-1.47 2.623-1.92q.38.992.895 1.92c-.343.617-.643 1.26-.891 1.92zm.484.128c.197-.527.429-1.04.686-1.542.227.377.45.754.72 1.131.171.257.343.497.514.729a15.5 15.5 0 0 1-1.92-.318m1.808-.677q-.449-.666-.848-1.363a20 20 0 0 1 1.62-2.417 20 20 0 0 1 2.627 0q.899 1.147 1.62 2.413-.721 1.268-1.616 2.417-1.313.082-2.627 0a21 21 0 0 1-.771-1.054zm1.183 1.556c.292.013.592.017.892.017s.608 0 .896-.017c-.3.356-.605.686-.896.986-.292-.3-.596-.63-.892-.986m4.788 2.799c-.73.48-2.088-.142-3.532-1.475q.646-.649 1.213-1.363 1.262-.09 2.486-.372c.505 1.555.492 2.768-.168 3.21m0-3.682a14 14 0 0 1-1.92.317q.666-.893 1.23-1.855.392.75.694 1.542zm-.686-2.55c-.223-.368-.446-.75-.712-1.127a25 25 0 0 0-.518-.728c.643.064 1.286.17 1.92.317a15 15 0 0 1-.686 1.543zm.857-2.001a16 16 0 0 0-2.486-.377q-.569-.714-1.213-1.363c1.44-1.333 2.799-1.954 3.532-1.47.655.428.668 1.65.163 3.21z"/><path fill="#fff" d="M8.571 16.5a1.072 1.072 0 1 0-2.143 0 1.072 1.072 0 0 0 2.143 0"/></g><defs><linearGradient id="b" x1="6" x2="18" y1="22.393" y2="1.607" gradientUnits="userSpaceOnUse"><stop stop-color="#383D63"/><stop offset=".23" stop-color="#693566"/><stop offset=".48" stop-color="#982D6A"/><stop offset=".7" stop-color="#BB276C"/><stop offset=".88" stop-color="#D0236D"/><stop offset="1" stop-color="#D8226E"/></linearGradient><clipPath id="a"><path fill="#fff" d="M0 0h24v24H0z"/></clipPath></defs></svg>
